X: 1
T: Miss Simple's
M: 4/4
L: 1/8
R: reel
K: Gmaj
f|g2dB GBdB|a2ec Acea|g2dB GBdB|c/B/Adc BGG:|
D|B,DGD CEAE|DFAB cAAG|B,DGD CEAE|DFA/B/c BGBG|
B,DGD CEAE|DFAB cedc|cdgd ceag|fdef gGG:|
